flaticon/transport/train-2.svg

<svg xmlns="http://www.w3.org/2000/svg" width="32" height="32" viewBox="0 0 24 24">
    <path d="M9.957031 13.015625C9.957031 12.121094 9.226562 11.390625 8.332031 11.390625 7.4375 11.390625 6.703125 12.121094 6.703125 13.015625 6.703125 13.910156 7.4375 14.644531 8.332031 14.644531 9.226562 14.644531 9.957031 13.910156 9.957031 13.015625zM7.519531 13.015625C7.519531 12.570312 7.882812 12.203125 8.332031 12.203125 8.777344 12.203125 9.144531 12.570312 9.144531 13.015625 9.144531 13.464844 8.777344 13.832031 8.332031 13.832031 7.882812 13.832031 7.519531 13.464844 7.519531 13.015625zM11.992188 8.542969C12.683594 8.542969 13.210938 8.011719 13.210938 7.320312 13.210938 6.628906 12.683594 6.101562 11.992188 6.101562 11.300781 6.101562 10.773438 6.628906 10.773438 7.320312 10.773438 8.011719 11.300781 8.542969 11.992188 8.542969zM11.992188 6.914062C12.238281 6.914062 12.398438 7.078125 12.398438 7.320312 12.398438 7.566406 12.238281 7.730469 11.992188 7.730469 11.75 7.730469 11.585938 7.566406 11.585938 7.320312 11.585938 7.078125 11.75 6.914062 11.992188 6.914062zM15.652344 14.644531C16.546875 14.644531 17.28125 13.910156 17.28125 13.015625 17.28125 12.121094 16.546875 11.390625 15.652344 11.390625 14.757812 11.390625 14.027344 12.121094 14.027344 13.015625 14.027344 13.910156 14.757812 14.644531 15.652344 14.644531zM15.652344 12.203125C16.101562 12.203125 16.46875 12.570312 16.46875 13.015625 16.46875 13.464844 16.101562 13.832031 15.652344 13.832031 15.207031 13.832031 14.839844 13.464844 14.839844 13.015625 14.839844 12.570312 15.207031 12.203125 15.652344 12.203125zM11.992188 14.238281C12.238281 14.238281 12.398438 14.074219 12.398438 13.832031L12.398438 12.203125C12.398438 11.960938 12.238281 11.796875 11.992188 11.796875 11.75 11.796875 11.585938 11.960938 11.585938 12.203125L11.585938 13.832031C11.585938 14.074219 11.75 14.238281 11.992188 14.238281zM10.367188 17.085938L13.621094 17.085938C13.863281 17.085938 14.027344 16.921875 14.027344 16.679688 14.027344 16.433594 13.863281 16.269531 13.621094 16.269531L10.363281 16.269531C10.121094 16.269531 9.957031 16.433594 9.957031 16.679688 9.957031 16.921875 10.121094 17.085938 10.367188 17.085938zM15.652344 18.304688C15.652344 18.0625 15.492188 17.898438 15.246094 17.898438L8.738281 17.898438C8.492188 17.898438 8.332031 18.0625 8.332031 18.304688 8.332031 18.550781 8.492188 18.710938 8.738281 18.710938L15.246094 18.710938C15.492188 18.710938 15.652344 18.550781 15.652344 18.304688zM15.652344 18.304688"/>
    <path d="M 21.632812 23.308594 L 17.871094 19.910156 C 18.15625 19.757812 18.421875 19.585938 18.664062 19.402344 C 19.070312 19.078125 19.3125 18.628906 19.3125 18.140625 L 19.3125 12.609375 L 20.738281 12.609375 C 21.308594 12.609375 21.753906 12.164062 21.753906 11.632812 L 21.753906 9.558594 C 21.753906 8.988281 21.308594 8.542969 20.738281 8.542969 L 19.3125 8.542969 L 19.3125 5.371094 C 19.3125 4.921875 19.109375 4.472656 18.746094 4.191406 C 17.640625 3.347656 16.011719 2.800781 14.234375 2.550781 L 15.105469 0.8125 L 16.875 0.8125 C 17.117188 0.8125 17.28125 0.652344 17.28125 0.40625 C 17.28125 0.164062 17.117188 0 16.875 0 L 7.109375 0 C 6.867188 0 6.703125 0.164062 6.703125 0.40625 C 6.703125 0.652344 6.867188 0.8125 7.109375 0.8125 L 8.902344 0.8125 L 9.769531 2.550781 C 8.027344 2.792969 6.429688 3.324219 5.320312 4.148438 C 4.914062 4.472656 4.671875 4.921875 4.671875 5.410156 L 4.671875 8.5 L 3.246094 8.5 C 2.675781 8.5 2.230469 8.949219 2.230469 9.519531 L 2.230469 11.59375 C 2.230469 12.164062 2.675781 12.609375 3.246094 12.609375 L 4.671875 12.609375 L 4.671875 18.183594 C 4.671875 18.628906 4.875 19.078125 5.238281 19.363281 C 5.4375 19.511719 5.652344 19.648438 5.878906 19.78125 L 2.351562 23.308594 C 2.230469 23.429688 2.230469 23.59375 2.269531 23.757812 C 2.3125 23.917969 2.472656 24 2.636719 24 L 21.347656 24 C 21.511719 24 21.671875 23.878906 21.753906 23.757812 C 21.796875 23.59375 21.753906 23.429688 21.632812 23.308594 Z M 18.503906 21.558594 L 15.652344 21.558594 L 15.652344 20.734375 C 16.160156 20.609375 16.644531 20.457031 17.09375 20.273438 Z M 8.738281 21.558594 L 8.738281 20.820312 C 9.765625 21.039062 10.875 21.152344 11.992188 21.152344 C 12.960938 21.152344 13.925781 21.070312 14.839844 20.90625 L 14.839844 21.558594 Z M 14.839844 22.371094 L 14.839844 23.1875 L 8.738281 23.1875 L 8.738281 22.371094 Z M 10.367188 5.785156 C 10.371094 5.785156 10.375 5.785156 10.378906 5.785156 C 10.386719 5.78125 10.398438 5.78125 10.40625 5.78125 C 10.476562 5.773438 10.542969 5.765625 10.609375 5.757812 C 10.617188 5.757812 10.625 5.757812 10.636719 5.757812 C 10.703125 5.75 10.773438 5.746094 10.84375 5.738281 C 10.847656 5.738281 10.855469 5.738281 10.863281 5.738281 C 10.933594 5.734375 11.003906 5.726562 11.074219 5.722656 C 11.082031 5.722656 11.085938 5.722656 11.089844 5.722656 C 11.164062 5.71875 11.234375 5.714844 11.308594 5.710938 C 11.3125 5.710938 11.316406 5.710938 11.324219 5.710938 C 11.394531 5.707031 11.46875 5.703125 11.539062 5.703125 C 11.546875 5.703125 11.554688 5.703125 11.558594 5.703125 C 11.632812 5.699219 11.703125 5.699219 11.773438 5.695312 C 11.800781 5.695312 11.832031 5.695312 11.859375 5.695312 C 11.90625 5.695312 11.957031 5.695312 12.003906 5.695312 C 12.5625 5.695312 13.117188 5.726562 13.660156 5.785156 L 13.660156 8.664062 C 13.660156 8.828125 13.539062 8.949219 13.375 8.949219 L 10.648438 8.949219 C 10.488281 8.949219 10.367188 8.828125 10.367188 8.664062 Z M 20.738281 9.316406 C 20.859375 9.316406 20.941406 9.398438 20.941406 9.519531 L 20.941406 11.59375 C 20.941406 11.714844 20.859375 11.796875 20.738281 11.796875 L 19.3125 11.796875 L 19.3125 9.316406 Z M 10.609375 2.441406 L 9.796875 0.8125 L 14.1875 0.8125 L 13.375 2.441406 L 13.160156 2.441406 C 12.386719 2.386719 11.601562 2.386719 10.832031 2.441406 Z M 5.484375 5.410156 C 5.484375 5.207031 5.605469 4.960938 5.769531 4.839844 C 7.234375 3.78125 9.59375 3.253906 11.992188 3.253906 C 14.433594 3.253906 16.832031 3.78125 18.257812 4.882812 C 18.417969 5.003906 18.5 5.207031 18.5 5.410156 L 18.5 6.484375 C 17.390625 5.769531 15.964844 5.289062 14.433594 5.046875 L 14.433594 5.042969 L 14.367188 5.035156 C 14.019531 4.984375 13.667969 4.941406 13.3125 4.914062 C 12.167969 4.808594 11.007812 4.835938 9.878906 5.003906 L 9.511719 5.042969 L 9.511719 5.066406 C 9.507812 5.066406 9.5 5.066406 9.496094 5.066406 C 9.484375 5.070312 9.46875 5.070312 9.457031 5.074219 C 9.386719 5.085938 9.320312 5.097656 9.253906 5.109375 C 9.242188 5.113281 9.226562 5.113281 9.210938 5.117188 C 9.144531 5.128906 9.078125 5.144531 9.007812 5.15625 C 8.996094 5.160156 8.988281 5.160156 8.976562 5.164062 C 7.667969 5.433594 6.460938 5.878906 5.484375 6.507812 Z M 3.246094 11.796875 C 3.125 11.796875 3.042969 11.714844 3.042969 11.632812 L 3.042969 9.558594 C 3.042969 9.4375 3.125 9.355469 3.246094 9.355469 L 4.671875 9.355469 L 4.671875 11.796875 Z M 5.484375 18.183594 L 5.484375 7.527344 C 6.253906 6.917969 7.261719 6.460938 8.386719 6.152344 C 8.390625 6.152344 8.394531 6.152344 8.398438 6.152344 C 8.464844 6.132812 8.527344 6.117188 8.59375 6.101562 C 8.601562 6.097656 8.609375 6.097656 8.617188 6.09375 C 8.679688 6.078125 8.742188 6.0625 8.808594 6.046875 C 8.816406 6.046875 8.828125 6.042969 8.839844 6.042969 C 8.898438 6.027344 8.960938 6.011719 9.023438 6 C 9.035156 5.996094 9.046875 5.996094 9.0625 5.992188 C 9.121094 5.980469 9.183594 5.96875 9.242188 5.957031 C 9.257812 5.953125 9.269531 5.949219 9.285156 5.949219 C 9.34375 5.9375 9.40625 5.925781 9.464844 5.914062 C 9.480469 5.910156 9.492188 5.910156 9.507812 5.90625 C 9.507812 5.90625 9.511719 5.90625 9.511719 5.90625 L 9.511719 8.664062 C 9.511719 9.273438 10 9.761719 10.609375 9.761719 L 13.335938 9.761719 C 13.945312 9.761719 14.433594 9.273438 14.433594 8.664062 L 14.433594 5.898438 C 16.03125 6.167969 17.484375 6.71875 18.5 7.546875 L 18.5 18.183594 C 18.5 18.386719 18.378906 18.589844 18.175781 18.753906 C 15.289062 20.867188 8.535156 20.867188 5.726562 18.710938 C 5.566406 18.589844 5.484375 18.386719 5.484375 18.183594 Z M 7.925781 20.613281 L 7.925781 21.558594 L 5.21875 21.558594 L 6.613281 20.144531 C 7.023438 20.328125 7.460938 20.484375 7.925781 20.613281 Z M 4.414062 22.371094 L 7.925781 22.371094 L 7.925781 23.1875 L 3.613281 23.1875 Z M 15.652344 23.1875 L 15.652344 22.371094 L 19.3125 22.371094 L 19.3125 22.296875 L 20.289062 23.1875 Z M 15.652344 23.1875"/>
</svg>

<svg xmlns="http://www.w3.org/2000/svg" width="32" height="32" viewBox="0 0 24 24">
    <path d="M9.957 13.016c0-.895-.73-1.625-1.625-1.625s-1.629.73-1.629 1.625c0 .894.734 1.629 1.629 1.629s1.625-.735 1.625-1.63zm-2.437 0c0-.446.363-.813.812-.813.445 0 .813.367.813.813 0 .449-.368.816-.813.816a.815.815 0 0 1-.812-.816zm0 0M11.992 8.543a1.2 1.2 0 0 0 1.219-1.223c0-.691-.527-1.218-1.219-1.218-.691 0-1.219.527-1.219 1.218a1.2 1.2 0 0 0 1.22 1.223zm0-1.629c.246 0 .406.164.406.406 0 .246-.16.41-.406.41-.242 0-.406-.164-.406-.41 0-.242.164-.406.406-.406zm0 0M15.652 14.645c.895 0 1.63-.735 1.63-1.63 0-.894-.735-1.624-1.63-1.624-.894 0-1.625.73-1.625 1.625 0 .894.73 1.629 1.625 1.629zm0-2.442c.45 0 .817.367.817.813 0 .449-.367.816-.817.816a.818.818 0 0 1-.812-.816c0-.446.367-.813.812-.813zm0 0M11.992 14.238c.246 0 .406-.164.406-.406v-1.629c0-.242-.16-.406-.406-.406a.385.385 0 0 0-.406.406v1.629c0 .242.164.406.406.406zm0 0M10.367 17.086h3.254a.385.385 0 0 0 .406-.406c0-.246-.164-.41-.406-.41h-3.258c-.242 0-.406.164-.406.41 0 .242.164.406.41.406zm0 0M15.652 18.305c0-.242-.16-.407-.406-.407H8.738c-.246 0-.406.165-.406.407 0 .246.16.406.406.406h6.508c.246 0 .406-.16.406-.406zm0 0"/>
    <path d="M21.633 23.309L17.87 19.91a5.98 5.98 0 0 0 .793-.508c.406-.324.648-.773.648-1.261v-5.532h1.426c.57 0 1.016-.445 1.016-.976V9.559c0-.57-.445-1.016-1.016-1.016h-1.425V5.371c0-.45-.204-.898-.567-1.18-1.105-.843-2.734-1.39-4.512-1.64l.871-1.739h1.77c.242 0 .406-.16.406-.406A.385.385 0 0 0 16.875 0H7.109a.385.385 0 0 0-.406.406c0 .246.164.406.406.406h1.793l.868 1.739c-1.743.242-3.34.773-4.45 1.597-.406.325-.648.774-.648 1.262V8.5H3.246c-.57 0-1.016.45-1.016 1.02v2.074c0 .57.446 1.015 1.016 1.015h1.426v5.575c0 .445.203.894.566 1.18.2.148.414.284.64.417L2.353 23.31c-.122.12-.122.285-.082.449.042.16.203.242.367.242h18.71c.165 0 .325-.121.407-.242a.457.457 0 0 0-.121-.45zm-3.13-1.75h-2.85v-.825c.507-.125.992-.277 1.44-.46zm-9.765 0v-.739c1.028.22 2.137.332 3.254.332.969 0 1.934-.082 2.848-.246v.653zm6.102.812v.817H8.738v-.817zM10.367 5.785h.012c.008-.004.02-.004.027-.004l.203-.023h.028c.066-.008.136-.012.207-.02h.02l.21-.015h.016l.219-.012h.015c.07-.004.145-.008.215-.008h.02c.074-.004.144-.004.214-.008H12.004c.559 0 1.113.032 1.656.09v2.88a.277.277 0 0 1-.285.284h-2.727a.276.276 0 0 1-.28-.285zm10.371 3.531c.121 0 .203.082.203.204v2.074a.193.193 0 0 1-.203.203h-1.425v-2.48zM10.61 2.441L9.797.813h4.39l-.812 1.628h-.215a16.54 16.54 0 0 0-2.328 0zm-5.125 2.97c0-.204.121-.45.286-.571 1.464-1.059 3.824-1.586 6.222-1.586 2.442 0 4.84.527 6.266 1.629.16.12.242.324.242.527v1.074c-1.11-.714-2.535-1.195-4.066-1.437v-.004l-.067-.008c-.347-.05-.699-.094-1.055-.12a14.417 14.417 0 0 0-3.433.089l-.367.039v.023h-.016c-.012.004-.027.004-.039.008l-.203.035c-.012.004-.027.004-.043.008-.066.012-.133.028-.203.04-.012.003-.02.003-.031.007-1.309.27-2.516.715-3.493 1.344zm-2.238 6.386c-.121 0-.203-.082-.203-.164V9.559c0-.121.082-.204.203-.204h1.426v2.442zm2.238 6.387V7.527c.77-.609 1.778-1.066 2.903-1.375h.011c.067-.02.13-.035.196-.05.008-.004.015-.004.023-.008.063-.016.125-.032.192-.047.007 0 .02-.004.03-.004.06-.016.122-.031.184-.043.012-.004.024-.004.04-.008l.18-.035c.015-.004.027-.008.042-.008l.18-.035c.015-.004.027-.004.043-.008h.004v2.758c0 .61.488 1.098 1.097 1.098h2.727c.61 0 1.098-.489 1.098-1.098V5.898c1.597.27 3.05.82 4.066 1.649v10.637c0 .203-.121.406-.324.57-2.887 2.113-9.64 2.113-12.45-.043a.658.658 0 0 1-.242-.527zm2.442 2.43v.945H5.219l1.394-1.414c.41.183.848.34 1.313.468zM4.414 22.37h3.512v.817H3.613zm11.238.817v-.817h3.66v-.074l.977.89zm0 0"/>
</svg>
